material/.icons/material/server.svg

<svg xmlns="http://www.w3.org/2000/svg" viewBox="0 0 24 24"><path d="M4 1h16a1 1 0 011 1v4a1 1 0 01-1 1H4a1 1 0 01-1-1V2a1 1 0 011-1m0 8h16a1 1 0 011 1v4a1 1 0 01-1 1H4a1 1 0 01-1-1v-4a1 1 0 011-1m0 8h16a1 1 0 011 1v4a1 1 0 01-1 1H4a1 1 0 01-1-1v-4a1 1 0 011-1M9 5h1V3H9v2m0 8h1v-2H9v2m0 8h1v-2H9v2M5 3v2h2V3H5m0 8v2h2v-2H5m0 8v2h2v-2H5z"/></svg>

<?xml version="1.0" encoding="UTF-8"?><!DOCTYPE svg PUBLIC "-//W3C//DTD SVG 1.1//EN" "http://www.w3.org/Graphics/SVG/1.1/DTD/svg11.dtd"><svg xmlns="http://www.w3.org/2000/svg" xmlns:xlink="http://www.w3.org/1999/xlink" version="1.1" id="mdi-server" width="24" height="24" viewBox="0 0 24 24"><path d="M4,1H20A1,1 0 0,1 21,2V6A1,1 0 0,1 20,7H4A1,1 0 0,1 3,6V2A1,1 0 0,1 4,1M4,9H20A1,1 0 0,1 21,10V14A1,1 0 0,1 20,15H4A1,1 0 0,1 3,14V10A1,1 0 0,1 4,9M4,17H20A1,1 0 0,1 21,18V22A1,1 0 0,1 20,23H4A1,1 0 0,1 3,22V18A1,1 0 0,1 4,17M9,5H10V3H9V5M9,13H10V11H9V13M9,21H10V19H9V21M5,3V5H7V3H5M5,11V13H7V11H5M5,19V21H7V19H5Z" /></svg>
